**harm	**harte	**timestamp	**phrase	**leadinstrument	**kern
*M4/4	*M4/4	*	*	*	*
*C:	*C:	*	*	*	*C:
1r;	N	0	.	r	1r;
=1	=1	=1	=1	=1	=1
*>A_intro	*>A_intro	*>A_intro	*>A_intro	*>A_intro	*>A_intro
1r	N	1.511	newline	r	1r
=2	=2	=2	=2	=2	=2
1r	N	4.118	.	r	1r
=3	=3	=3	=3	=3	=3
1r	N	6.726	.	r	1r
=4	=4	=4	=4	=4	=4
1r	N	9.333	.	r	1r
=5	=5	=5	=5	=5	=5
1r	N	11.94	newline	r	1r
=6	=6	=6	=6	=6	=6
1r	N	13.849	.	r	1r
=7	=7	=7	=7	=7	=7
1r	N	15.758	.	r	1r
=8	=8	=8	=8	=8	=8
1r	N	17.667	.	r	1r
=9	=9	=9	=9	=9	=9
1r	N	19.576	newline	voice	1r
=10	=10	=10	=10	=10	=10
1r	N	21.437	.	voice	1r
1r;	N	23.298	.	r	1r;
1r;	N	25.159	.	r	1r;
1r;	N	27.02	.	r	1r;
1r;	N	28.766	.	r	1r;
=11	=11	=11	=11	=11	=11
*>B_intro	*>B_intro	*>B_intro	*>B_intro	*>B_intro	*>B_intro
1vi	A:min	30.512	newline	electric guitar	1A 1cc 1ee
=12	=12	=12	=12	=12	=12
1vi	A:min	32.417	.	electric guitar	1A 1cc 1ee
=13	=13	=13	=13	=13	=13
1IV	F:maj	34.321	.	electric guitar	1F 1a 1cc
=14	=14	=14	=14	=14	=14
1IV	F:maj	36.226	.	electric guitar	1F 1a 1cc
=15	=15	=15	=15	=15	=15
1I	C:maj	38.13	newline	electric guitar	1C 1e 1g
=16	=16	=16	=16	=16	=16
1I	C:maj	39.916	.	electric guitar	1C 1e 1g
=17	=17	=17	=17	=17	=17
1V	G:maj	41.702	.	electric guitar	1G 1b 1dd
=18	=18	=18	=18	=18	=18
1V	G:maj	43.488	.	electric guitar	1G 1b 1dd
=19	=19	=19	=19	=19	=19
*>B_verse	*>B_verse	*>B_verse	*>B_verse	*>B_verse	*>B_verse
*a:	*a:	*	*	*	*a:
1i	A:min	45.273	newline	voice	1A 1cc 1ee
=20	=20	=20	=20	=20	=20
1i	A:min	47.176	.	voice	1A 1cc 1ee
=21	=21	=21	=21	=21	=21
1-VI	F:maj	49.079	.	voice	1F- 1a- 1cc-
=22	=22	=22	=22	=22	=22
1-VI	F:maj	50.982	.	voice	1F- 1a- 1cc-
=23	=23	=23	=23	=23	=23
1-III	C:maj	52.885	newline	voice	1C- 1e- 1g-
=24	=24	=24	=24	=24	=24
1-III	C:maj	54.683	.	voice	1C- 1e- 1g-
=25	=25	=25	=25	=25	=25
1-VII	G:maj	56.481	.	voice	1G 1b 1dd
=26	=26	=26	=26	=26	=26
1-VII	G:maj	58.278	.	voice	1G 1b 1dd
=27	=27	=27	=27	=27	=27
1i	A:min	60.076	newline	voice	1A 1cc 1ee
=28	=28	=28	=28	=28	=28
1i	A:min	61.989	.	voice	1A 1cc 1ee
=29	=29	=29	=29	=29	=29
1-VI	F:maj	63.901	.	voice	1F- 1a- 1cc-
=30	=30	=30	=30	=30	=30
1-VI	F:maj	65.814	.	voice	1F- 1a- 1cc-
=31	=31	=31	=31	=31	=31
1-III	C:maj	67.727	newline	voice	1C- 1e- 1g-
=32	=32	=32	=32	=32	=32
1-III	C:maj	69.57	.	voice	1C- 1e- 1g-
=33	=33	=33	=33	=33	=33
1-VII	G:maj	71.413	.	voice	1G 1b 1dd
=34	=34	=34	=34	=34	=34
1-VII	G:maj	73.256	.	voice	1G 1b 1dd
=35	=35	=35	=35	=35	=35
*>C_prechorus	*>C_prechorus	*>C_prechorus	*>C_prechorus	*>C_prechorus	*>C_prechorus
1i	A:min	75.1	newline	voice	1A 1cc 1ee
=36	=36	=36	=36	=36	=36
1iv	D:min	76.965	.	voice	1D 1f 1a
=37	=37	=37	=37	=37	=37
1-VI	F:maj	78.83	.	voice	1F- 1a- 1cc-
=38	=38	=38	=38	=38	=38
1-VII	G:maj	80.695	.	voice	1G 1b 1dd
=39	=39	=39	=39	=39	=39
1i	A:min	82.56	newline	voice	1A 1cc 1ee
=40	=40	=40	=40	=40	=40
1iv	D:min	84.389	.	voice	1D 1f 1a
=41	=41	=41	=41	=41	=41
1-VI	F:maj	86.217	.	voice	1F- 1a- 1cc-
=42	=42	=42	=42	=42	=42
1-VII	G:maj	88.045	.	voice	1G 1b 1dd
=43	=43	=43	=43	=43	=43
*>D_chorus	*>D_chorus	*>D_chorus	*>D_chorus	*>D_chorus	*>D_chorus
*c:	*c:	*	*	*	*c:
1i	C:min	89.873	newline	voice	1C 1e- 1g
=44	=44	=44	=44	=44	=44
2-VI	A-:maj	91.738	.	voice	2A-- 2cc- 2ee--
2-VII	B-:maj	92.671	.	voice	2B- 2dd 2ff
=45	=45	=45	=45	=45	=45
1i	C:min	93.604	.	voice	1C 1e- 1g
=46	=46	=46	=46	=46	=46
2-VI	A-:maj	95.469	.	voice	2A-- 2cc- 2ee--
2-VII	B-:maj	96.401	.	voice	2B- 2dd 2ff
=47	=47	=47	=47	=47	=47
1i	C:min	97.334	newline	voice	1C 1e- 1g
=48	=48	=48	=48	=48	=48
2-VI	A-:maj	99.177	.	voice	2A-- 2cc- 2ee--
2-VII	B-:maj	100.099	.	voice	2B- 2dd 2ff
=49	=49	=49	=49	=49	=49
1i	C:min	101.02	.	voice	1C 1e- 1g
=50	=50	=50	=50	=50	=50
2-VI	A-:maj	102.863	.	voice	2A-- 2cc- 2ee--
2-VII	B-:maj	103.785	.	voice	2B- 2dd 2ff
=51	=51	=51	=51	=51	=51
1iv	F:min	104.706	newline	voice	1F 1a- 1cc
=52	=52	=52	=52	=52	=52
1v	G:min	106.54	.	voice	1G 1b- 1dd
=53	=53	=53	=53	=53	=53
1i	C:min	108.373	.	voice	1C 1e- 1g
=54	=54	=54	=54	=54	=54
1-VII	B-:maj	110.207	.	voice	1B- 1dd 1ff
=55	=55	=55	=55	=55	=55
*>B_verse	*>B_verse	*>B_verse	*>B_verse	*>B_verse	*>B_verse
*a:	*a:	*	*	*	*a:
1i	A:min	112.04	newline	voice	1A 1cc 1ee
=56	=56	=56	=56	=56	=56
1i	A:min	113.913	.	voice	1A 1cc 1ee
=57	=57	=57	=57	=57	=57
1-VI	F:maj	115.785	.	voice	1F- 1a- 1cc-
=58	=58	=58	=58	=58	=58
1-VI	F:maj	117.657	.	voice	1F- 1a- 1cc-
=59	=59	=59	=59	=59	=59
1-III	C:maj	119.53	newline	voice	1C- 1e- 1g-
=60	=60	=60	=60	=60	=60
1-III	C:maj	121.309	.	voice	1C- 1e- 1g-
=61	=61	=61	=61	=61	=61
1-VII	G:maj	123.088	.	voice	1G 1b 1dd
=62	=62	=62	=62	=62	=62
1-VII	G:maj	124.867	.	voice	1G 1b 1dd
=63	=63	=63	=63	=63	=63
1i	A:min	126.646	newline	voice	1A 1cc 1ee
=64	=64	=64	=64	=64	=64
1i	A:min	128.563	.	voice	1A 1cc 1ee
=65	=65	=65	=65	=65	=65
1-VI	F:maj	130.479	.	voice	1F- 1a- 1cc-
=66	=66	=66	=66	=66	=66
1-VI	F:maj	132.396	.	voice	1F- 1a- 1cc-
=67	=67	=67	=67	=67	=67
1-III	C:maj	134.312	newline	voice	1C- 1e- 1g-
=68	=68	=68	=68	=68	=68
1-III	C:maj	136.146	.	voice	1C- 1e- 1g-
=69	=69	=69	=69	=69	=69
1-VII	G:maj	137.981	.	voice	1G 1b 1dd
=70	=70	=70	=70	=70	=70
1-VII	G:maj	139.815	.	voice	1G 1b 1dd
=71	=71	=71	=71	=71	=71
*>C_prechorus	*>C_prechorus	*>C_prechorus	*>C_prechorus	*>C_prechorus	*>C_prechorus
1i	A:min	141.649	newline	voice	1A 1cc 1ee
=72	=72	=72	=72	=72	=72
1iv	D:min	143.499	.	voice	1D 1f 1a
=73	=73	=73	=73	=73	=73
1-VI	F:maj	145.349	.	voice	1F- 1a- 1cc-
=74	=74	=74	=74	=74	=74
1-VII	G:maj	147.199	.	voice	1G 1b 1dd
=75	=75	=75	=75	=75	=75
1i	A:min	149.05	newline	voice	1A 1cc 1ee
=76	=76	=76	=76	=76	=76
1iv	D:min	150.894	.	voice	1D 1f 1a
=77	=77	=77	=77	=77	=77
1-VI	F:maj	152.739	.	voice	1F- 1a- 1cc-
=78	=78	=78	=78	=78	=78
1-VII	G:maj	154.583	.	voice	1G 1b 1dd
=79	=79	=79	=79	=79	=79
*>D2_chorus	*>D2_chorus	*>D2_chorus	*>D2_chorus	*>D2_chorus	*>D2_chorus
*c:	*c:	*	*	*	*c:
1i	C:min	156.428	newline	voice	1C 1e- 1g
=80	=80	=80	=80	=80	=80
2-VI	A-:maj	158.283	.	voice	2A-- 2cc- 2ee--
2-VII	B-:maj	159.21	.	voice	2B- 2dd 2ff
=81	=81	=81	=81	=81	=81
1i	C:min	160.137	.	voice	1C 1e- 1g
=82	=82	=82	=82	=82	=82
2-VI	A-:maj	161.992	.	voice	2A-- 2cc- 2ee--
2-VII	B-:maj	162.92	.	voice	2B- 2dd 2ff
=83	=83	=83	=83	=83	=83
1i	C:min	163.847	newline	voice	1C 1e- 1g
=84	=84	=84	=84	=84	=84
2-VI	A-:maj	165.693	.	voice	2A-- 2cc- 2ee--
2-VII	B-:maj	166.615	.	voice	2B- 2dd 2ff
=85	=85	=85	=85	=85	=85
1i	C:min	167.538	.	voice	1C 1e- 1g
=86	=86	=86	=86	=86	=86
2-VI	A-:maj	169.383	.	voice	2A-- 2cc- 2ee--
2-VII	B-:maj	170.306	.	voice	2B- 2dd 2ff
=87	=87	=87	=87	=87	=87
1iv	F:min	171.228	newline	voice	1F 1a- 1cc
=88	=88	=88	=88	=88	=88
1v	G:min	173.08	.	voice	1G 1b- 1dd
=89	=89	=89	=89	=89	=89
1i	C:min	174.932	.	voice	1C 1e- 1g
=90	=90	=90	=90	=90	=90
1i	C:min	176.784	.	voice	1C 1e- 1g
=91	=91	=91	=91	=91	=91
*>E_solo	*>E_solo	*>E_solo	*>E_solo	*>E_solo	*>E_solo
*D:	*D:	*	*	*	*D:
1IV	G:maj	178.636	newline	electric guitar	1G 1b 1dd
=92	=92	=92	=92	=92	=92
1V	A:maj	180.475	.	electric guitar	1A 1cc# 1ee
=93	=93	=93	=93	=93	=93
1vi	B:min	182.314	.	electric guitar	1B 1dd 1ff#
=94	=94	=94	=94	=94	=94
1I	D:maj	184.154	.	electric guitar	1D 1f# 1a
=95	=95	=95	=95	=95	=95
1IV	G:maj	185.993	newline	electric guitar	1G 1b 1dd
=96	=96	=96	=96	=96	=96
1V	A:maj	187.854	.	electric guitar	1A 1cc# 1ee
=97	=97	=97	=97	=97	=97
1iii	F#:min	189.715	.	electric guitar	1F# 1a 1cc#
=98	=98	=98	=98	=98	=98
1iii	F#:min	191.576	.	electric guitar	1F# 1a 1cc#
=99	=99	=99	=99	=99	=99
*>F_bridge	*>F_bridge	*>F_bridge	*>F_bridge	*>F_bridge	*>F_bridge
1IV	G:maj	193.438	newline	voice	1G 1b 1dd
=100	=100	=100	=100	=100	=100
1IV	G:maj	195.287	.	voice	1G 1b 1dd
=101	=101	=101	=101	=101	=101
1V	A:maj	197.136	.	voice	1A 1cc# 1ee
=102	=102	=102	=102	=102	=102
1V	A:maj	198.985	.	voice	1A 1cc# 1ee
=103	=103	=103	=103	=103	=103
1IV	G:maj	200.834	newline	voice	1G 1b 1dd
=104	=104	=104	=104	=104	=104
1IV	G:maj	202.678	.	voice	1G 1b 1dd
=105	=105	=105	=105	=105	=105
1V	A:maj	204.523	.	voice	1A 1cc# 1ee
=106	=106	=106	=106	=106	=106
1V	A:maj	206.367	.	voice	1A 1cc# 1ee
=107	=107	=107	=107	=107	=107
1iii	F#:min	208.212	newline	voice	1F# 1a 1cc#
=108	=108	=108	=108	=108	=108
1iii	F#:min	210.066	.	voice	1F# 1a 1cc#
=109	=109	=109	=109	=109	=109
1IIIb	F#:maj/b3	211.92	.	voice	1f# 1A# 1cc#
=110	=110	=110	=110	=110	=110
1IIIc	F#:maj/5	213.774	.	voice	1f# 1a# 1C#
=111	=111	=111	=111	=111	=111
*>D3_chorus	*>D3_chorus	*>D3_chorus	*>D3_chorus	*>D3_chorus	*>D3_chorus
*c:	*c:	*	*	*	*c:
1r	N	215.628	newline	voice	1r
=112	=112	=112	=112	=112	=112
1r	N	217.477	.	voice	1r
=113	=113	=113	=113	=113	=113
1r	N	219.326	.	voice	1r
=114	=114	=114	=114	=114	=114
1r	N	221.175	.	voice	1r
=115	=115	=115	=115	=115	=115
1i	C:min	223.024	newline	voice	1C 1e- 1g
=116	=116	=116	=116	=116	=116
1i	C:1	224.873	.	voice	1C 1e- 1g
=117	=117	=117	=117	=117	=117
1i	C:1	226.722	.	voice	1C 1e- 1g
=118	=118	=118	=118	=118	=118
1i	C:1	228.571	.	voice	1C 1e- 1g
=119	=119	=119	=119	=119	=119
1iv	F:min	230.42	newline	voice	1F 1a- 1cc
=120	=120	=120	=120	=120	=120
1v	G:min	232.266	.	voice	1G 1b- 1dd
=121	=121	=121	=121	=121	=121
*>D4_chorus	*>D4_chorus	*>D4_chorus	*>D4_chorus	*>D4_chorus	*>D4_chorus
1i	C:min	234.111	->newline	voice	1C 1e- 1g
=122	=122	=122	=122	=122	=122
2-VI	A-:maj	235.96	.	voice	2A-- 2cc- 2ee--
2-VII	B-:maj	236.885	.	voice	2B- 2dd 2ff
=123	=123	=123	=123	=123	=123
1i	C:min	237.809	.	voice	1C 1e- 1g
=124	=124	=124	=124	=124	=124
2-VI	A-:maj	239.658	.	voice	2A-- 2cc- 2ee--
2-VII	B-:maj	240.583	.	voice	2B- 2dd 2ff
=125	=125	=125	=125	=125	=125
1i	C:min	241.507	newline	voice	1C 1e- 1g
=126	=126	=126	=126	=126	=126
2-VI	A-:maj	243.355	.	voice	2A-- 2cc- 2ee--
2-VII	B-:maj	244.278	.	voice	2B- 2dd 2ff
=127	=127	=127	=127	=127	=127
1i	C:min	245.202	.	voice	1C 1e- 1g
=128	=128	=128	=128	=128	=128
2-VI	A-:maj	247.049	.	voice	2A-- 2cc- 2ee--
2-VII	B-:maj	247.973	.	voice	2B- 2dd 2ff
=129	=129	=129	=129	=129	=129
1iv	F:min	248.897	newline	voice	1F 1a- 1cc
=130	=130	=130	=130	=130	=130
1v	G:min	250.732	.	voice	1G 1b- 1dd
=131	=131	=131	=131	=131	=131
*>D5_chorus	*>D5_chorus	*>D5_chorus	*>D5_chorus	*>D5_chorus	*>D5_chorus
1i	C:min	252.567	->newline	voice	1C 1e- 1g
=132	=132	=132	=132	=132	=132
2-VI	A-:maj	254.42	.	voice	2A-- 2cc- 2ee--
2-VII	B-:maj	255.346	.	voice	2B- 2dd 2ff
=133	=133	=133	=133	=133	=133
1i	C:min	256.272	.	voice	1C 1e- 1g
=134	=134	=134	=134	=134	=134
2-VI	A-:maj	258.125	.	voice	2A-- 2cc- 2ee--
2-VII	B-:maj	259.051	.	voice	2B- 2dd 2ff
=135	=135	=135	=135	=135	=135
1i	C:min	259.977	newline	voice	1C 1e- 1g
=136	=136	=136	=136	=136	=136
2-VI	A-:maj	261.82	.	voice	2A-- 2cc- 2ee--
2-VII	B-:maj	262.742	.	voice	2B- 2dd 2ff
=137	=137	=137	=137	=137	=137
1i	C:min	263.663	.	voice	1C 1e- 1g
=138	=138	=138	=138	=138	=138
2-VI	A-:maj	265.506	.	voice	2A-- 2cc- 2ee--
2-VII	B-:maj	266.428	.	voice	2B- 2dd 2ff
=139	=139	=139	=139	=139	=139
1iv	F:min	267.349	newline	voice	1F 1a- 1cc
=140	=140	=140	=140	=140	=140
1v	G:min	269.091	.	voice	1G 1b- 1dd
=141	=141	=141	=141	=141	=141
1r	N	270.832	.	voice	1r
1r;	N	272.574	.	r	1r;
1r;	N	274.671	.	r	1r;
*-	*-	*-	*-	*-	*-
!!!OTL: Hey Stoopid
!!!COC: Alice Cooper
!!!BillboardChartDate: 1991/07/27
!!!BillboardPeak: 78
!!!BillboardWeeksOnChart: 5
!!!SampleTargetRank: 99
!!!SampleActualRank: 99
!!!SampleID#: 0599
!!!RDF**harmony: **recip + pitch class of root + harmonic quality
!!!RDF**harte: Chris Harte's syntax, used by MIREX
!!!RDF**phrase: newline = linebreak in original McGill transcription
!!!RDF**timestamp: McGill audio timestamp in seconds
!!!RDF**leadinstrument: original McGill primary instrumentation annotation
!!!RDT: 2017/01/12/
!!!ENC: Nathaniel Condit-Schultz
!!!EST: Awating manual error checking and editing.
